X:1
T:An dro : La Ziguezon
Z:Roger Négaret (94-95)
R:
C:Trad.
S:
A:Québec
M:2/4
L:1/16
K:C
Q:1/4=180
AAAA c2AA | A2AA G4 | BBBB d2BB |1 c3B A4 :|2 c3B A3"FIN"A |]
ABcB A2ee | edcd e2e2 | B3B ABcB | A2ee edcd | e2e2 B3B |
BBBB c2A2 | BBBB cAAA | B2B2 c2AA | B2BB c2AA |
B2BB c2AA | B2BB c2AA | B2B2 c2AA | B2B2 c4 |]

